X: 28759
T: My Kindly Sweetheart
R: reel
M: 4/4
K: Bminor
B2 cd cBBc|(3BBB de feec|B2 cd cBBd|cA (3AAA feec:|
d2 fe dBAB|d2 fe beef|d2 fe dBAd|cA (3AAA feec:|

